X: 4935
T: Breaking The Saw
R: jig
M: 6/8
K: Gmajor
|:dBG ~G3|dBG ABc|dBG ~G3|efg ed^c|
dBG ~G3|dBG ABc|ded dcA|BGF G3:|
|:~e3 edB|def ~g3|~e3 edB|dBG ~A3|
d3 dcA|cAG ABc|ded dcA|BGF G3:|

